X:1
T:It Must Be Told
T:Robert C. Marquis
T:It Must Be Told
T:Public Domain
T:Public Domain
T:Public Domain
C:Robert C. Marquis
Z:Public Domain
%%score ( 1 2 ) ( 3 4 )
L:1/8
M:4/4
K:Ab
V:1 treble 
V:2 treble 
V:3 bass 
V:4 bass 
V:1
 [CA][DB] | [Ec]3 [Ec] [Fd]3 [Ec] | [Ec]2 [EB]4 [EB][Ec] | [Gd]3 [Gd] [Ge]3 [Ed] | [Ec]6 [CA][DB] | %5
w: 1.~’Tis a|sweet and ten- der|sto- ry, How the|Fa- ther from a-|bove Looked down|
w: 2.~’Tis the|ve- ry same old|sto- ry That has|warmed the cold world’s|heart Through the|
w: 3.~Say you|not that un- a-|vail- ing Seem the|words you try to|speak; Trust the|
 [Ec]3 [Ec] [Fd]3 [Ec] | [_Ge]2 [Fd]4 [Ec][DB] | [CA] [Ec]3 [DB]3 [CA] | [CA]6 [DG][CA] | %9
w: on His err- ing|child- ren With the|pity- ing eye of|love; How He|
w: cen- turies that have|van- ished, But its|charm can ne’er de-|part; There are|
w: Ho- ly Spir- it’s|unc- tion, It shall|strength- en what is|weak. G- o|
 [DB]3 [DB] [CA]3 [DB] | [Ec]2 [Ec]4 [Ec]2 | [Fd]3 [Fd] [A=d]3 [Ad] | [Ge]6 [Ed]2 | %13
w: sent His Well Be-|lov- èd, For-|give- ness to un-|fold; That|
w: souls that have not|heard it, Some|hearts so strange- ly|cold; To|
w: forth to do His|bid- ding; The|truth shall make you|bold; Though|
 [Ec]3 [Ec] [DB]2 [Ec]2 | [_Ge]2 [Fd]4 [DB]2 | [CA] [Ec]3 [DB]3 [CA] | [CA]6 z ||"^Refrain" [Ec] | %18
w: sweet and ten- der|sto- ry, O|Christ- ian, must be|told.||
w: these, O fal- tering|Christ- ian, The|sto- ry must be|told.|It|
w: few shall heed your|sto- ry, That|sto- ry must be|told.||
 (EEE)[CE] (EEE)[Fd] | (FFF)[DF] (FFF)[Fd] | [Ec](EEE) (AAA)[Ec] | (EEEE E2) [EB]2 | %22
w: ||||
w: must * * be told, * * it|told, * * The sto- * * ry|told; That * * sweet * * and|sto- * * * * ry,|
w: ||||
 [Ec]3 [Ec] [Ec]2 [_Ge]2 | [_Ge](FFF F[Fd]) [DB]2 | [CA] [Ec]3 [DB]3 [CA] | (CCDD C2) |] %26
w: ||||
w: Christ- ian, must be|told. * * * * * *|||
w: ||||
V:2
 x2 | x8 | x8 | x8 | x8 | x8 | x8 | x8 | x8 | x8 | x8 | x8 | x8 | x8 | x8 | x8 | x7 || x | %18
w: ||||||||||||||||||
w: ||||||||||||||||||
 c3 c3 x2 | d3 d3 x2 | x c3 e3 x | B6 x2 | x8 | x d4- x3 | x8 | A4 x2 |] %26
w: ||||||||
w: must be|must be|ten- der|O|||||
V:3
 [A,,E,][A,,E,] | [A,,A,]3 [A,,A,] [A,,A,]3 [A,,A,] | [E,A,]2 [E,G,]4 [E,G,][E,A,] | %3
w: ~ ~|~ ~ ~ ~|~ ~ ~ ~|
 [E,B,]3 [E,B,] [E,B,]3 [E,G,] | [A,,A,]6 [A,,E,][A,,E,] | [A,,A,]3 [A,,A,] [A,,A,]3 [A,,A,] | %6
w: ~ ~ ~ ~|~ ~ ~|~ ~ ~ ~|
 [C,A,]2 [D,A,]4 [D,A,][D,A,] | [E,A,] [E,A,]3 [E,G,]3 [A,,E,A,] | [A,,E,]6 [E,B,][E,A,] | %9
w: ~ ~ ~ ~|~ ~ ~ ~|~ ~ ~|
 [E,G,]3 [E,G,] [E,A,]3 [E,G,] | A,2 A,4 (A,_G,) | [F,A,]3 [F,A,] [F,B,]3 [B,,B,] | %12
w: ~ ~ ~ ~|~ ~ ~ *|~ ~ ~ ~|
 [E,B,]6 [E,G,]2 | [A,,A,]3 [A,,A,] [A,,A,]2 [A,,A,]2 | [C,A,]2 [D,A,]4 [D,F,]2 | %15
w: ~ ~|~ ~ ~ ~|~ ~ ~|
 E, [E,A,]3 [E,G,]3 [A,,A,] | [A,,E,]6 z || [A,,A,] | %18
w: ~ ~ It must|told,|it|
 [A,,A,][A,,A,][A,,A,][A,,E,] [A,,A,][A,,A,][A,,A,][D,A,] | %19
w: must be told, It must be told, it|
 [D,A,][D,A,][D,A,][D,F,] [D,A,][D,A,][D,A,][D,A,] | %20
w: must be told, The sto- ry must be|
 [A,,A,][A,,A,][A,,A,][A,,A,] [A,,C][A,,C][A,,C][C,A,] | [E,G,][E,G,][E,G,][E,G,] (E,D,)(C,B,,) | %22
w: sweet- ly told, be oft- en sweet- ly|told; * * * * * * *|
 [A,,A,]3 [A,,A,] [A,,A,]2 [C,A,]2 | [D,A,][D,A,][D,A,][D,A,] [D,A,][D,A,] [D,F,]2 | %24
w: ||
 E, [E,A,]3 [E,G,]3 [A,,E,] | [A,,E,][A,,E,][A,,F,][A,,F,] [A,,E,]2 |] %26
w: ||
V:4
 x2 | x8 | x8 | x8 | x8 | x8 | x8 | x8 | x8 | x8 | A,2 A,4 A,2 | x8 | x8 | x8 | x8 | E, x7 | x7 || %17
w: ||||||||||~ ~ ~|||||be||
 x | x8 | x8 | x8 | x4 G,2 G,2 | x8 | x8 | E, x7 | x6 |] %26
w: |||||||||

